<?xml version="1.0" encoding="UTF-8"?>
<map version="1.10" tiledversion="1.12.1" orientation="orthogonal" renderorder="right-down" width="7" height="10" tilewidth="16" tileheight="16" infinite="0" nextlayerid="10" nextobjectid="4">
 <properties>
  <property name="AmbientLight" value="95 95 95"/>
  <property name="AmbientNightLight" value="150 150 30"/>
  <property name="PassOutSafe" value="T"/>
  <property name="ProduceArea" value="4 13 8 16"/>
  <property name="ViewportFollowPlayer" value="T"/>
  <property name="Warp" value="4 21 Farm 14 11"/>
 </properties>
 <tileset firstgid="1" name="FamiliarDenTilesheet" tilewidth="16" tileheight="16" tilecount="100" columns="10">
  <image source="FamiliarDenTilesheet" width="160" height="160"/>
 </tileset>
 <layer id="2" name="Back" width="7" height="10">
  <data encoding="csv">
0,0,0,0,0,0,0,
7,7,7,7,7,7,7,
7,7,7,7,7,7,7,
7,7,7,7,7,7,7,
19,19,19,19,19,19,19,
19,19,19,19,19,19,19,
19,19,19,19,19,19,19,
19,19,19,19,19,19,19,
19,19,19,19,19,19,19,
19,19,19,19,19,19,19
</data>
 </layer>
 <layer id="6" name="Back1" width="7" height="10">
  <data encoding="csv">
0,0,0,0,0,0,0,
0,0,0,0,0,0,0,
0,39,0,0,0,0,0,
16,16,16,16,16,16,22,
29,29,29,29,29,29,0,
0,0,0,0,0,0,0,
0,0,0,0,0,0,0,
0,0,0,0,0,0,0,
11,74,83,84,73,13,11,
0,64,53,54,63,13,11
</data>
 </layer>
 <layer id="7" name="Back2" width="7" height="10">
  <data encoding="csv">
0,0,0,0,0,0,0,
0,0,0,0,0,0,0,
0,0,0,0,0,0,0,
0,0,0,0,0,0,0,
77,78,79,0,0,0,77,
87,88,89,0,74,73,87,
97,98,99,0,64,63,97,
0,0,0,0,0,0,0,
0,0,0,0,0,0,74,
0,0,0,0,0,0,64
</data>
 </layer>
 <objectgroup id="9" name="Back"/>
 <layer id="3" name="Paths" width="7" height="10">
  <data encoding="csv">
0,0,0,0,0,0,0,
0,0,0,0,0,0,0,
0,0,0,0,0,0,0,
0,0,0,0,0,0,0,
0,0,0,0,0,0,0,
0,0,0,0,0,0,0,
0,0,0,0,0,0,0,
0,0,0,0,0,0,0,
0,0,0,0,0,0,0,
0,0,0,0,0,0,0
</data>
 </layer>
 <layer id="4" name="Buildings" width="7" height="10">
  <data encoding="csv">
31,31,31,31,31,31,31,
1,2,2,2,2,3,31,
11,0,0,0,0,0,31,
22,22,22,57,58,0,31,
0,0,0,67,68,0,31,
0,0,0,0,0,0,31,
0,0,0,0,0,0,31,
0,0,0,0,0,0,7,
0,0,0,0,0,0,7,
0,0,0,0,0,0,7
</data>
 </layer>
 <layer id="1" name="Front" width="7" height="10">
  <data encoding="csv">
0,0,0,0,0,0,0,
0,0,0,0,0,0,0,
0,0,0,0,0,0,0,
11,0,0,0,0,13,0,
11,0,0,0,0,0,0,
0,0,0,0,0,0,0,
0,0,0,0,0,0,0,
0,0,0,0,0,0,0,
0,0,0,0,0,0,0,
0,0,0,0,0,0,0
</data>
 </layer>
 <layer id="8" name="Front2" width="7" height="10">
  <data encoding="csv">
0,0,0,0,0,0,0,
0,0,0,0,0,0,0,
0,0,0,0,0,0,0,
0,0,0,0,0,0,0,
0,0,0,0,0,0,0,
0,0,0,0,0,0,0,
0,0,0,0,0,0,0,
0,0,0,0,0,0,0,
0,0,0,0,0,0,0,
0,0,0,0,0,0,0
</data>
 </layer>
 <layer id="5" name="AlwaysFront" width="7" height="10">
  <data encoding="csv">
0,0,0,0,0,0,0,
0,0,0,0,0,0,0,
11,0,0,0,0,13,0,
11,0,0,0,0,13,0,
11,0,0,0,0,13,0,
11,0,0,0,0,13,0,
11,0,0,0,0,13,0,
11,0,0,0,0,13,2,
11,0,0,0,0,0,0,
11,0,0,0,0,0,0
</data>
 </layer>
</map>
