<?xml version="1.0" encoding="UTF-8"?>
<map version="1.10" tiledversion="1.12.1" orientation="orthogonal" renderorder="right-down" width="22" height="22" tilewidth="16" tileheight="16" infinite="0" nextlayerid="12" nextobjectid="12">
 <properties>
  <property name="AmbientLight" value="95 95 95"/>
  <property name="AmbientNightLight" value="150 150 30"/>
  <property name="PassOutSafe" value="T"/>
  <property name="ProduceArea" value="4 13 8 16"/>
  <property name="ViewportFollowPlayer" value="T"/>
  <property name="Warp" value="4 21 Farm 14 11"/>
 </properties>
 <tileset firstgid="1" name="FamiliarDenTilesheet" tilewidth="16" tileheight="16" tilecount="100" columns="10">
  <image source="FamiliarDenTilesheet" width="160" height="160"/>
 </tileset>
 <tileset firstgid="101" name="FamiliarDenTilesheet" tilewidth="16" tileheight="16" tilecount="100" columns="10">
  <image source="FamiliarDenTilesheet" width="160" height="160"/>
 </tileset>
 <layer id="2" name="Back" width="22" height="22">
  <data encoding="csv">
0,0,0,0,0,0,0,0,0,0,0,0,0,0,0,0,0,0,0,0,0,0,
0,7,7,7,7,7,7,7,7,7,7,7,7,7,7,7,7,7,7,7,7,0,
0,7,7,7,7,7,7,7,7,7,7,7,7,7,7,7,7,7,7,7,7,0,
0,7,7,7,7,7,7,7,7,7,7,7,7,7,7,7,7,7,7,7,7,0,
0,19,19,19,19,19,19,19,19,19,19,19,19,19,19,19,19,19,19,19,19,0,
0,19,19,19,19,19,19,19,19,19,19,19,19,19,19,19,19,19,19,19,19,0,
0,19,19,19,19,19,19,19,19,19,19,19,19,19,19,19,19,19,19,19,19,0,
0,19,19,19,19,19,19,19,19,19,19,19,19,19,19,19,19,19,19,19,19,0,
0,19,19,19,19,19,19,19,19,19,19,19,19,19,19,19,19,19,19,19,19,0,
0,19,19,19,19,19,19,19,19,19,19,19,19,19,19,19,19,19,19,19,19,0,
0,6,6,6,6,6,6,6,6,6,6,6,6,6,6,6,6,6,6,6,6,6,
0,6,6,6,6,6,6,6,6,6,6,6,6,6,6,6,6,6,6,6,6,6,
0,6,6,6,6,6,6,6,6,6,6,6,6,6,6,6,6,6,6,6,6,6,
0,19,19,19,19,19,19,19,19,19,19,19,19,19,19,19,19,19,19,19,19,19,
0,19,19,19,19,19,19,19,19,19,19,19,19,19,19,19,19,19,19,19,19,19,
0,19,19,19,19,19,19,19,19,19,19,19,19,19,19,19,19,19,19,19,19,19,
0,19,19,19,19,19,19,19,19,19,19,19,19,19,19,19,19,19,19,19,19,19,
0,19,19,19,19,19,19,19,19,19,19,19,19,19,19,19,19,19,19,19,19,19,
0,19,19,19,19,19,19,19,19,19,19,19,19,19,19,19,19,19,19,19,19,19,
0,17,17,17,17,17,17,17,17,17,17,17,17,17,17,17,17,17,17,17,17,17,
0,0,0,17,17,17,0,0,0,17,17,17,17,0,0,0,0,0,0,0,0,0,
0,0,0,0,0,0,0,0,0,0,0,0,0,0,0,0,0,0,0,0,0,0
</data>
 </layer>
 <layer id="6" name="Back1" width="22" height="22">
  <data encoding="csv">
0,0,0,0,0,0,0,0,0,0,0,0,0,0,0,0,0,0,0,0,0,0,
0,0,0,0,0,0,0,0,0,0,0,0,0,0,0,0,0,0,0,0,0,0,
0,0,39,0,0,0,0,0,0,39,0,0,0,0,0,0,39,0,0,0,0,0,
0,16,16,16,16,16,16,22,16,16,16,16,16,16,0,16,16,16,16,16,16,0,
0,29,29,29,29,29,29,0,29,29,29,29,29,29,0,29,29,29,29,29,29,0,
0,0,0,0,0,0,0,0,0,0,0,0,0,0,0,0,0,0,0,0,0,0,
0,0,0,0,0,0,0,0,0,0,0,0,0,0,0,0,0,0,0,0,0,0,
0,0,0,0,0,0,0,0,0,0,0,0,0,0,0,0,0,0,0,0,0,0,
0,0,0,0,0,0,0,11,0,0,0,0,0,0,0,0,0,0,0,0,0,0,
0,0,0,0,0,0,0,11,0,0,0,0,0,0,6,0,0,0,0,0,0,0,
0,0,0,0,0,0,0,27,0,0,0,0,0,0,27,0,0,0,0,0,0,27,
0,0,0,0,0,0,0,0,0,0,0,0,0,0,0,0,0,0,0,0,0,0,
0,0,0,0,0,0,0,0,0,0,0,0,0,0,0,0,0,0,0,0,0,0,
0,0,0,0,0,0,0,0,0,0,0,0,0,0,0,0,0,0,0,0,0,0,
0,0,0,0,0,0,0,0,0,0,0,0,0,0,0,0,0,0,0,0,0,0,
0,0,0,0,0,0,0,0,0,0,0,0,0,0,0,0,0,0,0,0,0,0,
0,0,90,0,0,0,0,0,0,0,0,0,0,0,0,0,0,0,0,0,0,0,
0,0,0,0,0,0,0,0,0,0,0,0,0,0,0,0,0,0,0,0,0,0,
0,0,0,0,0,0,0,0,0,0,0,0,0,0,0,0,0,0,0,0,0,0,
0,0,0,0,0,0,0,0,0,0,0,0,0,0,0,0,0,0,0,0,0,0,
0,0,0,27,27,27,0,0,0,77,78,78,79,0,0,0,0,0,0,0,0,0,
0,0,0,0,0,0,0,0,0,0,0,0,0,0,0,0,0,0,0,0,0,0
</data>
 </layer>
 <layer id="7" name="Back2" width="22" height="22">
  <data encoding="csv">
0,0,0,0,0,0,0,0,0,0,0,0,0,0,0,0,0,0,0,0,0,0,
0,0,0,0,0,0,0,0,0,0,0,0,0,0,0,0,0,0,0,0,0,0,
0,0,0,0,0,0,0,0,0,0,0,0,0,0,0,0,0,0,0,0,0,0,
0,0,0,0,0,0,0,0,0,0,0,0,0,0,0,0,0,0,0,0,0,0,
0,77,78,79,67,68,0,0,77,78,79,67,68,0,0,77,78,79,67,68,0,0,
0,87,88,89,0,74,73,0,87,88,89,0,0,0,0,87,88,89,0,0,0,0,
0,97,98,99,0,64,63,0,97,98,99,0,0,0,0,97,98,99,0,0,0,0,
0,0,0,0,0,0,0,0,0,90,0,0,0,0,0,0,74,73,0,0,0,0,
0,0,0,0,0,0,0,74,0,0,0,0,0,0,0,0,64,63,0,0,0,0,
0,0,0,0,0,0,0,64,0,0,0,0,0,0,0,0,0,0,0,0,0,0,
0,0,0,0,0,0,0,27,0,0,0,0,0,0,27,0,0,0,0,0,0,0,
0,0,0,0,0,0,0,0,0,0,0,0,0,0,0,0,0,0,0,0,0,0,
0,0,0,0,0,0,0,0,0,0,0,0,0,0,0,0,0,0,0,0,0,0,
0,74,73,0,0,0,0,0,0,0,0,0,0,0,0,0,0,0,0,0,0,0,
0,64,63,0,0,0,0,0,90,0,0,0,0,0,0,0,0,0,0,0,0,0,
0,0,0,0,0,0,0,0,0,0,0,0,0,0,0,0,74,73,0,0,0,0,
0,0,0,0,0,0,0,0,0,0,0,0,0,0,0,0,64,63,0,0,0,0,
0,0,0,0,0,0,0,0,0,0,0,0,0,0,0,90,0,0,90,0,0,0,
0,0,0,0,0,74,73,0,0,0,0,0,0,0,0,0,0,0,0,0,0,0,
0,0,0,0,0,64,63,0,0,0,0,0,90,0,0,0,0,0,0,0,0,0,
0,0,0,0,0,0,0,0,0,0,90,0,0,0,0,0,0,0,0,0,0,0,
0,0,0,0,0,0,0,0,0,0,0,0,0,0,0,0,0,0,0,0,0,0
</data>
 </layer>
 <objectgroup id="9" name="Back">
  <object id="2" x="64" y="304" width="16" height="16">
   <properties>
    <property name="NPCBarrier" value="T"/>
   </properties>
  </object>
  <object id="3" x="64" y="320" width="16" height="16">
   <properties>
    <property name="NPCBarrier" value="T"/>
   </properties>
  </object>
 </objectgroup>
 <layer id="3" name="Paths" width="22" height="22">
  <data encoding="csv">
0,0,0,0,0,0,0,0,0,0,0,0,0,0,0,0,0,0,0,0,0,0,
0,0,0,0,0,0,0,0,0,0,0,0,0,0,0,0,0,0,0,0,0,0,
0,0,0,0,0,0,0,0,0,0,0,0,0,0,0,0,0,0,0,0,0,0,
0,0,0,0,0,0,0,0,0,0,0,0,0,0,0,0,0,0,0,0,0,0,
0,0,0,0,0,0,0,0,0,0,0,0,0,0,0,0,0,0,0,0,0,0,
0,0,0,0,0,0,0,0,0,0,0,0,0,0,0,0,0,0,0,0,0,0,
0,0,0,0,0,0,0,0,0,0,0,0,0,0,0,0,0,0,0,0,0,0,
0,0,0,0,0,0,0,0,0,0,0,0,0,0,0,0,0,0,0,0,0,0,
0,0,0,0,0,0,0,0,0,0,0,0,0,0,0,0,0,0,0,0,0,0,
0,0,0,0,0,0,0,0,0,0,0,0,0,0,0,0,0,0,0,0,0,0,
0,0,0,0,0,0,0,0,0,0,0,0,0,0,0,0,0,0,0,0,0,0,
0,0,0,0,0,0,0,0,0,0,0,0,0,0,0,0,0,0,0,0,0,0,
0,0,0,0,0,0,0,0,0,0,0,0,0,0,0,0,0,0,0,0,0,0,
0,0,0,0,0,0,0,0,0,0,0,0,0,0,0,0,0,0,0,0,0,0,
0,0,0,0,0,0,0,0,0,0,0,0,0,0,0,0,0,0,0,0,0,0,
0,0,0,0,0,0,0,0,0,0,0,0,0,0,0,0,0,0,0,0,0,0,
0,0,0,0,0,0,0,0,0,0,0,0,0,0,0,0,0,0,0,0,0,0,
0,0,0,0,0,0,0,0,0,0,0,0,0,0,0,0,0,0,0,0,0,0,
0,0,0,0,0,0,0,0,0,0,0,0,0,0,0,0,0,0,0,0,0,0,
0,0,0,0,0,0,0,0,0,0,0,0,0,0,0,0,0,0,0,0,0,0,
0,0,0,0,0,0,0,0,0,0,0,0,0,0,0,0,0,0,0,0,0,0,
0,0,0,0,0,0,0,0,0,0,0,0,0,0,0,0,0,0,0,0,0,0
</data>
 </layer>
 <layer id="4" name="Buildings" width="22" height="22">
  <data encoding="csv">
31,31,31,31,31,31,31,31,31,31,31,31,31,31,31,31,31,31,31,31,31,31,
31,1,2,2,2,2,3,31,2,2,2,2,0,0,31,0,0,0,0,0,0,31,
31,11,0,0,0,0,0,31,0,0,0,0,0,0,31,0,0,0,0,0,0,31,
31,22,22,22,57,58,22,31,22,22,22,57,58,22,31,22,22,22,57,58,22,31,
31,0,0,0,0,0,0,31,0,0,0,0,0,0,31,0,0,0,0,0,0,31,
31,0,0,0,0,0,0,31,0,0,0,0,0,0,31,0,0,0,0,0,0,31,
31,0,0,0,0,0,0,31,0,0,0,0,0,0,31,0,0,0,0,0,0,31,
31,0,0,0,0,0,0,7,0,0,0,0,0,0,7,0,0,0,0,0,0,7,
31,0,0,0,0,0,0,7,0,0,0,0,0,0,7,0,0,0,0,0,0,7,
31,0,0,0,0,0,0,7,0,0,0,0,0,0,7,0,0,0,0,0,0,7,
31,0,0,0,0,0,0,7,0,0,0,0,0,0,7,0,0,0,0,0,0,7,
31,0,0,0,0,0,0,0,0,0,0,0,0,0,0,0,0,0,0,0,0,0,
31,0,0,0,0,0,0,0,0,0,0,0,0,0,0,0,0,0,0,0,0,0,
31,0,0,0,0,0,0,0,0,0,0,0,0,0,0,0,0,0,0,0,0,0,
31,0,37,0,0,0,0,0,0,0,0,0,0,0,0,0,0,0,0,0,0,0,
31,0,47,0,0,0,0,0,0,0,0,0,0,0,0,0,0,0,0,0,0,0,
31,0,0,0,0,0,0,0,0,0,0,0,0,0,0,0,0,0,0,0,0,0,
31,0,0,0,0,0,0,0,0,0,0,0,0,0,0,0,0,0,0,0,0,0,
31,0,0,0,0,0,0,0,0,0,0,0,0,0,0,0,0,0,0,0,0,0,
31,0,0,24,0,0,0,0,0,0,0,0,0,0,0,0,0,0,0,0,0,0,
31,31,31,34,0,14,31,31,31,34,78,78,14,31,31,31,31,31,31,31,31,31,
31,31,31,31,31,31,31,31,31,31,31,31,31,31,31,31,31,31,31,31,31,31
</data>
 </layer>
 <objectgroup id="11" name="Buildings">
  <object id="5" name="TileData" x="32" y="224" width="16" height="16">
   <properties>
    <property name="Action" value="FAUNA.OpenFamiliarLog"/>
   </properties>
  </object>
 </objectgroup>
 <layer id="1" name="Front" width="22" height="22">
  <data encoding="csv">
0,0,0,0,0,0,0,0,0,0,0,0,0,0,0,0,0,0,0,0,0,0,
0,0,0,0,0,0,0,0,0,0,0,0,0,0,0,0,0,0,0,0,0,0,
0,0,0,0,0,0,0,0,0,0,0,0,0,0,0,0,0,0,0,0,0,0,
0,0,0,0,0,0,0,0,0,0,0,0,0,0,0,0,0,0,0,0,0,0,
0,0,0,0,0,0,0,0,0,0,0,0,0,0,0,0,0,0,0,0,0,0,
0,0,0,0,0,0,0,0,0,0,0,0,0,0,0,0,0,0,0,0,0,0,
0,0,0,0,0,0,0,0,0,0,0,0,0,0,0,0,0,0,0,0,0,0,
0,0,0,0,0,0,0,0,0,0,0,0,0,0,2,0,0,0,0,0,0,2,
0,0,0,0,0,0,0,0,0,0,0,0,0,0,0,0,0,0,0,0,0,0,
0,0,0,0,0,0,0,0,0,0,0,0,0,0,0,0,0,0,0,0,0,0,
0,0,0,0,0,0,0,0,0,0,0,0,0,0,0,0,0,0,0,0,0,0,
0,0,0,0,0,0,0,0,0,0,0,0,0,0,0,0,0,0,0,0,0,0,
0,0,0,0,0,0,0,0,0,0,0,0,0,0,0,0,0,0,0,0,0,0,
0,0,0,0,0,0,0,0,0,0,0,0,0,0,0,0,0,0,0,0,0,0,
0,0,0,0,0,0,0,0,0,0,0,0,0,0,0,0,0,0,0,0,0,0,
0,0,0,0,0,0,0,0,0,0,0,0,0,0,0,0,0,0,0,0,0,0,
0,0,0,0,0,0,0,0,0,0,0,0,0,0,0,0,0,0,0,0,0,0,
0,0,0,0,0,0,0,0,0,0,0,0,0,0,0,0,0,0,0,0,0,0,
0,0,0,0,0,0,0,0,0,0,0,0,0,0,0,0,0,0,0,0,0,0,
0,0,0,0,0,4,22,22,0,24,0,0,4,0,0,0,0,0,0,0,0,0,
0,0,0,0,0,0,0,0,0,0,0,0,0,0,0,0,0,0,0,0,0,0,
0,0,0,0,0,0,0,0,0,0,0,0,0,0,0,0,0,0,0,0,0,0
</data>
 </layer>
 <layer id="8" name="Front2" width="22" height="22">
  <data encoding="csv">
0,0,0,0,0,0,0,0,0,0,0,0,0,0,0,0,0,0,0,0,0,0,
0,0,0,0,0,0,0,0,1,0,0,0,0,3,0,1,0,0,0,0,3,0,
0,0,0,0,0,0,0,0,0,0,0,0,0,0,0,0,0,0,0,0,0,0,
0,0,0,0,0,0,0,0,0,0,0,0,0,0,0,0,0,0,0,0,0,0,
0,0,0,0,0,0,0,0,0,0,0,0,0,0,0,0,0,0,0,0,0,0,
0,0,0,0,0,0,0,0,0,0,0,0,0,0,0,0,0,0,0,0,0,0,
0,0,0,0,0,0,0,0,0,0,0,0,0,0,0,0,0,0,0,0,0,0,
0,0,0,0,0,0,0,0,0,0,0,0,0,0,0,0,0,0,0,0,0,0,
0,0,0,0,0,0,0,0,0,0,0,0,0,0,0,0,0,0,0,0,0,0,
0,0,0,0,0,0,0,0,0,0,0,0,0,0,0,0,0,0,0,0,0,0,
0,0,0,0,0,0,0,0,0,0,0,0,0,0,0,0,0,0,0,0,0,0,
0,0,0,0,0,0,0,0,0,0,0,0,0,0,0,0,0,0,0,0,0,0,
0,0,0,0,0,0,0,0,0,0,0,0,0,0,0,0,0,0,0,0,0,0,
0,0,0,0,0,0,0,0,0,0,0,0,0,0,0,0,0,0,0,0,0,0,
0,0,0,0,0,0,0,0,0,0,0,0,0,0,0,0,0,0,0,0,0,0,
0,0,0,0,0,0,0,0,0,0,0,0,0,0,0,0,0,0,0,0,0,0,
0,0,0,0,0,0,0,0,0,0,0,0,0,0,0,0,0,0,0,0,0,0,
0,0,0,0,0,0,0,0,0,0,0,0,0,0,0,0,0,0,0,0,0,0,
0,0,0,0,0,0,0,0,0,0,0,0,0,0,0,0,0,0,0,0,0,0,
0,21,0,0,0,0,0,0,0,0,0,0,0,0,0,0,0,0,0,0,0,0,
0,0,0,0,0,0,0,0,0,0,0,0,0,0,0,0,0,0,0,0,0,0,
0,0,0,0,0,0,0,0,0,0,0,0,0,0,0,0,0,0,0,0,0,0
</data>
 </layer>
 <layer id="5" name="AlwaysFront" width="22" height="22">
  <data encoding="csv">
31,31,31,31,31,31,31,31,31,31,31,31,31,31,31,31,31,31,31,31,31,31,
4,0,0,0,0,0,0,22,0,0,0,0,2,0,22,0,2,2,2,2,0,22,
13,0,0,0,0,0,0,7,0,0,0,0,0,0,7,0,0,0,0,0,0,7,
13,0,0,0,0,0,0,7,0,0,0,0,0,0,7,0,0,0,0,0,0,7,
13,0,0,0,0,0,0,7,0,0,0,0,0,0,7,0,0,0,0,0,0,7,
13,0,0,0,0,0,0,7,0,0,0,0,0,0,7,0,0,0,0,0,0,7,
13,0,0,0,0,0,0,7,0,0,0,0,0,0,7,0,0,0,0,0,0,7,
13,0,0,0,0,0,0,27,0,0,0,0,0,0,27,0,0,0,0,0,0,27,
13,0,0,0,0,0,0,0,0,0,0,0,0,0,0,0,0,0,0,0,0,0,
13,0,0,0,0,0,0,0,0,0,0,0,0,0,0,0,0,0,0,0,0,0,
13,0,0,0,0,0,0,0,0,0,0,0,0,0,0,0,0,0,0,0,0,0,
13,0,0,0,0,0,0,0,0,0,0,0,0,0,0,0,0,0,0,0,0,0,
13,0,0,0,0,0,0,0,0,0,0,0,0,0,0,0,0,0,0,0,0,0,
13,0,0,0,0,0,0,0,0,0,0,0,0,0,0,0,0,0,0,0,0,0,
13,0,37,0,0,0,0,0,0,0,0,0,0,0,0,0,0,0,0,0,0,0,
13,0,0,0,0,0,0,0,0,0,0,0,0,0,0,0,0,0,0,0,0,0,
13,0,0,0,0,0,0,0,0,0,0,0,0,0,0,0,0,0,0,0,0,0,
13,0,0,0,0,0,0,0,0,0,0,0,0,0,0,0,0,0,0,0,0,0,
14,0,0,0,0,0,0,0,0,0,0,0,0,0,0,0,0,0,0,0,0,0,
31,0,22,0,0,0,0,0,22,0,0,0,0,22,22,22,22,22,22,22,22,22,
31,31,31,0,0,0,31,31,31,0,0,0,0,31,31,31,31,31,31,31,31,31,
0,0,31,31,31,31,31,0,31,31,31,31,31,31,0,0,0,0,0,0,0,0
</data>
 </layer>
</map>
